docs/static/images/users/nasa.svg

<svg width="98" height="80" xmlns="http://www.w3.org/2000/svg">
  <path d="M85.58 39.978c0 22.062-17.921 39.947-40.027 39.947-22.107 0-40.027-17.885-40.027-39.947C5.526 17.915 23.446.03 45.553.03 67.659.03 85.58 17.915 85.58 39.978z" fill="#0b3d91"/>
  <path d="M43.638 7.703a.449.449 0 11-.898-.002.449.449 0 01.898.002zM48.245 8.3a.449.449 0 11-.897-.001.449.449 0 01.897.001zM54.288 16.421a.449.449 0 11-.898-.002.449.449 0 01.898.002zM21.142 58.22a.449.449 0 11-.898-.002.449.449 0 01.898.002zM22.308 61.803a.448.448 0 11-.896-.002.448.448 0 01.896.002zM16.631 58.757a.336.336 0 11-.672 0 .336.336 0 01.672 0zM34.881 65.795a.337.337 0 11-.674 0 .337.337 0 01.674 0zM63.501 59.862a.335.335 0 11-.67 0 .335.335 0 01.67 0zM71.82 50.845a.337.337 0 11-.674 0 .337.337 0 01.674 0zM31.051 19.04a.336.336 0 11-.672 0 .336.336 0 01.672 0zM40.205 12.331a.336.336 0 11-.672-.002.336.336 0 01.672.002zM39.211 11.674a.336.336 0 11-.672-.002.336.336 0 01.672.002zM38.313 11.017a.335.335 0 11-.67 0 .335.335 0 01.67 0zM32.487 20.773a.336.336 0 01-.672 0 .335.335 0 01.672 0zM45.971 3.314a.336.336 0 01-.672 0 .335.335 0 01.672 0zM48.185 12.987a.335.335 0 11-.67.001.335.335 0 01.67-.001zM44.692 11.099a.335.335 0 11-.67 0 .335.335 0 01.67 0zM38.709 13.667a.336.336 0 11-.672 0 .336.336 0 01.672 0zM65.095 68.722a.336.336 0 11-.672 0 .336.336 0 01.672 0zM20.462 60.489a.337.337 0 01-.338.336.336.336 0 110-.672c.187 0 .338.15.338.336zM43.856 64.818a.336.336 0 11-.673 0 .336.336 0 01.673 0zM27.424 60.22a.337.337 0 11-.674 0 .337.337 0 01.674 0zM30.334 64.96a.337.337 0 11-.674 0 .337.337 0 01.674 0zM51.752 61.975a.335.335 0 11-.67 0 .335.335 0 01.67 0zM63.561 55.324a.335.335 0 11-.67 0 .335.335 0 01.67 0zM72.514 59.406a.335.335 0 11-.67 0 .335.335 0 01.67 0zM75.565 61.355a.335.335 0 11-.67 0 .335.335 0 01.67 0zM76.067 56.04a.335.335 0 11-.67.001.335.335 0 01.67-.001zM31.551 48.516a.335.335 0 11-.67.001.335.335 0 01.67-.001zM31.792 56.219a.448.448 0 11-.896 0 .448.448 0 01.896 0zM34.484 61.892a.449.449 0 11-.898-.002.449.449 0 01.898.002zM66.733 55.981a.448.448 0 11-.895-.001.448.448 0 01.895.001zM78.341 55.324a.449.449 0 11-.898-.002.449.449 0 01.898.002zM72.597 52.876a.448.448 0 01-.449.447.448.448 0 11.449-.447zM66.733 53.114a.448.448 0 11-.896 0 .448.448 0 01.896 0zM54.19 7.422l1.115-.106-1.113-.063a.495.495 0 00-.425-.411l-.107-1.109-.064 1.118a.493.493 0 00-.381.422l-1.14.103 1.148.062a.493.493 0 00.393.378l.104 1.143.061-1.141a.5.5 0 00.409-.396zM35.357 19.821l1.115-.107-1.113-.063a.495.495 0 00-.425-.411l-.107-1.108-.063 1.117a.493.493 0 00-.382.422l-1.141.104 1.149.062a.495.495 0 00.393.378l.104 1.142.062-1.14a.497.497 0 00.408-.396zM77.074 52.601l1.116-.107-1.114-.062a.492.492 0 00-.425-.411l-.106-1.109-.063 1.118a.49.49 0 00-.381.422l-1.141.103 1.149.062a.493.493 0 00.393.378l.103 1.142.062-1.14a.497.497 0 00.407-.396zM31.587 69.74l1.116-.106-1.114-.063a.494.494 0 00-.425-.411l-.106-1.108-.063 1.117a.492.492 0 00-.382.422l-1.141.104 1.149.061a.49.49 0 00.393.378l.104 1.143.061-1.141a.496.496 0 00.408-.396zM73.529 61.381l1.116-.107-1.114-.063a.493.493 0 00-.425-.411L73 59.692l-.063 1.116a.492.492 0 00-.381.422l-1.141.104 1.149.062a.493.493 0 00.393.378l.103 1.142.062-1.14a.495.495 0 00.407-.395z" fill="#fff"/>
  <path d="M55.045 30.409c-4.654 1.805-9.193 3.416-13.023 4.612C34.239 37.454 12.944 44.038.08 52.338l1.077.418c7.838-4.419 12.932-5.807 17.83-7.345 5.325-1.671 22.539-5.692 30.334-7.882a131.33 131.33 0 008.985-2.886 80.715 80.715 0 00-3.261-4.234zm5.686 7.821c-1.127.759-2.071 1.365-2.732 1.748-3.829 2.209-22.498 14.928-26.745 17.854-4.247 2.926-16.035 14.032-19.505 17.257l-.12 1.312C22.818 66.37 26.328 63.896 30.776 60.519c5.504-4.18 16.891-11.913 20.761-14.391 3.7-2.369 7.036-4.547 10.031-6.541a94.117 94.117 0 00-.837-1.357zm17.49-18.435c-5.451 3.188-14.042 7.037-22.376 10.302a73.645 73.645 0 013.232 4.266c6.551-2.409 13.74-5.641 19.444-9.553-2.717 2.569-11.701 9.27-17.179 13.005.283.459.556.918.82 1.374 8.299-5.542 13.883-9.621 17.137-12.349 4.487-3.762 14.718-12.182 18.607-23.467-6.821 8.659-14.887 13.614-19.685 16.422z" fill="#fc3d21"/>
  <path d="M40.402 49.869c-.882-1.109-2.103-2.594-3.019-3.745a69.807 69.807 0 01-3.399-4.649l-1.015.254a70.707 70.707 0 004.166 5.811c1.108 1.393 2.117 2.515 2.633 3.213.105.141.312.454.592.87l.979-.663a20.3 20.3 0 01-.937-1.091zm6.442 5.836c-.725-.685-2.483-1.828-4.313-3.544-.404.277-.811.557-1.22.84 1.181 1.662 2.791 3.703 4.051 4.298 1.899.898 2.411-.716 1.482-1.594zm9.596-24.87C45.978 17.692 33.197 10.472 27.686 14.842c-4.28 3.393-2.523 13.311 3.377 23.73l.906-.308c-5.954-10.151-7.584-19.585-3.547-22.786 5.073-4.023 17.321 3.225 27.481 15.987a75.478 75.478 0 015.517 7.877c5.995 9.902 7.835 18.857 3.693 22.512-1.268 1.119-5.141 1.558-10.215-.721-.07.088.043.328.132.387 4.38 1.757 8.575 2.427 10.693.748 5.09-4.036 1.18-18.291-9.283-31.433zM11.569 32.394h6.701l5.624 9.524v-7.434c0-.836-1.062-1.926-1.436-2.09h4.637c-.284.075-1.197 1.179-1.197 2.09v10.927c0 .672.972 1.598 1.436 1.956h-6.462l-5.714-9.569v7.524c0 .746.733 1.463 1.496 2.075h-4.936c.703-.299 1.376-1.239 1.436-1.986.06-.746 0-10.375 0-10.793 0-.91-.883-1.657-1.585-2.224z" fill="#fff"/>
  <path d="M72.866 47.367h8.915c-.494-.119-1.047-.702-1.346-1.478-.3-.776-5.026-13.495-5.026-13.495h-3.39c-.961.691-1.991 1.419-3.091 2.187a1.08 1.08 0 01-.011.082c-.147.896-2.8 10.484-2.962 10.957-.224.657-1.376 1.389-1.839 1.777h4.801c-.479-.538-.868-1.06-.778-1.657.09-.597.359-1.791.359-1.791h4.966c.225.597.392 1.133.479 1.642.105.612-.524 1.298-1.077 1.776zm-3.919-5.329l1.675-5.464 2.214 5.464h-3.889zm-.755-9.098l.74-.546h-1.301c.129.12.344.308.561.546zM34.095 45.74c.09-.597.359-1.791.359-1.791h4.966c.224.597.392 1.133.479 1.642.104.612-.524 1.298-1.077 1.776h7.849l.488-.327c-.304-.269-.584-.672-.768-1.151-.3-.776-5.026-13.495-5.026-13.495h-7.778c.373.343 1.45 1.269 1.286 2.269-.147.896-2.8 10.484-2.962 10.957-.224.657-1.376 1.389-1.84 1.777h4.802c-.479-.538-.868-1.06-.778-1.657zm2.483-9.166l2.214 5.464h-3.889l1.675-5.464zM61.208 39.826c-1.464.974-3.009 1.99-4.636 3.051.73.353 1.311.797 1.367 1.37.104 1.077-2.064 1.597-4.024 1.373a4.828 4.828 0 01-1.144-.284c-.406.262-.817.525-1.234.792-.424.272-.938.606-1.526.992v1.546c.389-.761 1.24-1.443 1.9-1.478.284-.015 1.271.895 5.34.672 1.974-.109 5.789-2.21 5.729-4.628-.036-1.429-.784-2.544-1.772-3.406zM50.01 43.56v1.575l1.063-.706a7.846 7.846 0 01-1.063-.869zm9.807-4.722c-.379-.224-.763-.42-1.131-.593-1.915-.896-3.919-1.06-4.338-2.269-.295-.853.539-1.642 2.573-1.612 2.034.029 3.919 1.239 4.427 1.672v-3.852c-.149.149-.805.901-1.406.776a26.388 26.388 0 00-5.355-.537c-2.572.015-4.786 1.999-4.861 4.508-.105 3.508 2.707 4.464 4.293 5.016.163.057.35.118.552.182 1.521-.987 2.724-1.747 3.428-2.152a38.972 38.972 0 001.818-1.139z" fill="#fff"/>
</svg>

<?xml version="1.0" encoding="UTF-8"?>
<svg width="98px" height="80px" viewBox="0 0 98 80" xmlns="http://www.w3.org/2000/svg" xmlns:xlink="http://www.w3.org/1999/xlink" version="1.1">
 <!-- Generated by Pixelmator Pro 1.4.1 -->
 <path id="path" d="M85.58 39.978 C85.58 62.04 67.659 79.925 45.553 79.925 23.446 79.925 5.526 62.04 5.526 39.978 5.526 17.915 23.446 0.03 45.553 0.03 67.659 0.03 85.58 17.915 85.58 39.978 Z" fill="#0b3d91" fill-opacity="1" stroke="none"/>
 <path id="path-1" d="M43.638 7.703 C43.638 7.95 43.437 8.151 43.189 8.151 42.942 8.151 42.741 7.95 42.741 7.703 42.741 7.456 42.942 7.255 43.189 7.255 43.437 7.255 43.638 7.456 43.638 7.703 Z" fill="#ffffff" fill-opacity="1" stroke="none"/>
 <path id="path-2" d="M48.245 8.3 C48.245 8.547 48.044 8.748 47.797 8.748 47.549 8.748 47.348 8.547 47.348 8.3 47.348 8.053 47.549 7.852 47.797 7.852 48.044 7.852 48.245 8.053 48.245 8.3 Z" fill="#ffffff" fill-opacity="1" stroke="none"/>
 <path id="path-3" d="M54.288 16.421 C54.288 16.668 54.087 16.869 53.839 16.869 53.592 16.869 53.391 16.668 53.391 16.421 53.391 16.174 53.592 15.973 53.839 15.973 54.087 15.973 54.288 16.174 54.288 16.421 Z" fill="#ffffff" fill-opacity="1" stroke="none"/>
 <path id="path-4" d="M21.142 58.22 C21.142 58.467 20.941 58.668 20.693 58.668 20.445 58.668 20.244 58.467 20.244 58.22 20.244 57.973 20.445 57.772 20.693 57.772 20.941 57.772 21.142 57.973 21.142 58.22 Z" fill="#ffffff" fill-opacity="1" stroke="none"/>
 <path id="path-5" d="M22.308 61.803 C22.308 62.05 22.107 62.25 21.859 62.25 21.612 62.25 21.411 62.05 21.411 61.803 21.411 61.555 21.612 61.355 21.859 61.355 22.107 61.355 22.308 61.555 22.308 61.803 Z" fill="#ffffff" fill-opacity="1" stroke="none"/>
 <path id="path-6" d="M16.631 58.757 C16.631 58.942 16.481 59.093 16.295 59.093 16.11 59.093 15.959 58.942 15.959 58.757 15.959 58.572 16.11 58.422 16.295 58.422 16.481 58.422 16.631 58.572 16.631 58.757 Z" fill="#ffffff" fill-opacity="1" stroke="none"/>
 <path id="path-7" d="M34.881 65.795 C34.881 65.981 34.73 66.132 34.544 66.132 34.358 66.132 34.207 65.981 34.207 65.795 34.207 65.61 34.358 65.459 34.544 65.459 34.73 65.459 34.881 65.61 34.881 65.795 Z" fill="#ffffff" fill-opacity="1" stroke="none"/>
 <path id="path-8" d="M63.501 59.862 C63.501 60.047 63.351 60.197 63.165 60.197 62.98 60.197 62.829 60.047 62.829 59.862 62.829 59.677 62.98 59.526 63.165 59.526 63.351 59.526 63.501 59.677 63.501 59.862 Z" fill="#ffffff" fill-opacity="1" stroke="none"/>
 <path id="path-9" d="M71.82 50.845 C71.82 51.031 71.669 51.182 71.483 51.182 71.297 51.182 71.146 51.031 71.146 50.845 71.146 50.66 71.297 50.509 71.483 50.509 71.669 50.509 71.82 50.66 71.82 50.845 Z" fill="#ffffff" fill-opacity="1" stroke="none"/>
 <path id="path-10" d="M31.051 19.04 C31.051 19.226 30.9 19.376 30.715 19.376 30.529 19.376 30.379 19.226 30.379 19.04 30.379 18.855 30.529 18.705 30.715 18.705 30.9 18.705 31.051 18.855 31.051 19.04 Z" fill="#ffffff" fill-opacity="1" stroke="none"/>
 <path id="path-11" d="M40.205 12.331 C40.205 12.516 40.054 12.666 39.869 12.666 39.683 12.666 39.533 12.516 39.533 12.331 39.533 12.145 39.683 11.995 39.869 11.995 40.054 11.995 40.205 12.145 40.205 12.331 Z" fill="#ffffff" fill-opacity="1" stroke="none"/>
 <path id="path-12" d="M39.211 11.674 C39.211 11.859 39.06 12.009 38.875 12.009 38.689 12.009 38.539 11.859 38.539 11.674 38.539 11.489 38.689 11.338 38.875 11.338 39.06 11.338 39.211 11.489 39.211 11.674 Z" fill="#ffffff" fill-opacity="1" stroke="none"/>
 <path id="path-13" d="M38.313 11.017 C38.313 11.202 38.163 11.352 37.977 11.352 37.792 11.352 37.641 11.202 37.641 11.017 37.641 10.832 37.792 10.682 37.977 10.682 38.163 10.682 38.313 10.832 38.313 11.017 Z" fill="#ffffff" fill-opacity="1" stroke="none"/>
 <path id="path-14" d="M32.487 20.773 C32.487 20.958 32.336 21.108 32.151 21.108 31.965 21.108 31.815 20.958 31.815 20.773 31.815 20.588 31.965 20.438 32.151 20.438 32.336 20.438 32.487 20.588 32.487 20.773 Z" fill="#ffffff" fill-opacity="1" stroke="none"/>
 <path id="path-15" d="M45.971 3.314 C45.971 3.499 45.82 3.649 45.635 3.649 45.449 3.649 45.299 3.499 45.299 3.314 45.299 3.129 45.449 2.979 45.635 2.979 45.82 2.979 45.971 3.129 45.971 3.314 Z" fill="#ffffff" fill-opacity="1" stroke="none"/>
 <path id="path-16" d="M48.185 12.987 C48.185 13.173 48.035 13.323 47.849 13.323 47.664 13.323 47.513 13.173 47.513 12.987 47.513 12.802 47.664 12.652 47.849 12.652 48.035 12.652 48.185 12.802 48.185 12.987 Z" fill="#ffffff" fill-opacity="1" stroke="none"/>
 <path id="path-17" d="M44.692 11.099 C44.692 11.284 44.542 11.434 44.356 11.434 44.171 11.434 44.02 11.284 44.02 11.099 44.02 10.913 44.171 10.763 44.356 10.763 44.542 10.763 44.692 10.913 44.692 11.099 Z" fill="#ffffff" fill-opacity="1" stroke="none"/>
 <path id="path-18" d="M38.709 13.667 C38.709 13.852 38.559 14.003 38.373 14.003 38.188 14.003 38.037 13.852 38.037 13.667 38.037 13.482 38.188 13.332 38.373 13.332 38.559 13.332 38.709 13.482 38.709 13.667 Z" fill="#ffffff" fill-opacity="1" stroke="none"/>
 <path id="path-19" d="M65.095 68.722 C65.095 68.908 64.944 69.058 64.759 69.058 64.573 69.058 64.423 68.908 64.423 68.722 64.423 68.537 64.573 68.387 64.759 68.387 64.944 68.387 65.095 68.537 65.095 68.722 Z" fill="#ffffff" fill-opacity="1" stroke="none"/>
 <path id="path-20" d="M20.462 60.489 C20.462 60.675 20.311 60.825 20.124 60.825 19.938 60.825 19.787 60.675 19.787 60.489 19.787 60.303 19.938 60.153 20.124 60.153 20.311 60.153 20.462 60.303 20.462 60.489 Z" fill="#ffffff" fill-opacity="1" stroke="none"/>
 <path id="path-21" d="M43.856 64.818 C43.856 65.004 43.705 65.154 43.519 65.154 43.332 65.154 43.182 65.004 43.182 64.818 43.182 64.632 43.332 64.482 43.519 64.482 43.705 64.482 43.856 64.632 43.856 64.818 Z" fill="#ffffff" fill-opacity="1" stroke="none"/>
 <path id="path-22" d="M27.424 60.22 C27.424 60.406 27.273 60.557 27.087 60.557 26.901 60.557 26.75 60.406 26.75 60.22 26.75 60.034 26.901 59.884 27.087 59.884 27.273 59.884 27.424 60.034 27.424 60.22 Z" fill="#ffffff" fill-opacity="1" stroke="none"/>
 <path id="path-23" d="M30.334 64.96 C30.334 65.146 30.183 65.297 29.997 65.297 29.81 65.297 29.66 65.146 29.66 64.96 29.66 64.775 29.81 64.624 29.997 64.624 30.183 64.624 30.334 64.775 30.334 64.96 Z" fill="#ffffff" fill-opacity="1" stroke="none"/>
 <path id="path-24" d="M51.752 61.975 C51.752 62.16 51.602 62.31 51.416 62.31 51.231 62.31 51.08 62.16 51.08 61.975 51.08 61.79 51.231 61.639 51.416 61.639 51.602 61.639 51.752 61.79 51.752 61.975 Z" fill="#ffffff" fill-opacity="1" stroke="none"/>
 <path id="path-25" d="M63.561 55.324 C63.561 55.509 63.411 55.659 63.225 55.659 63.04 55.659 62.889 55.509 62.889 55.324 62.889 55.138 63.04 54.988 63.225 54.988 63.411 54.988 63.561 55.138 63.561 55.324 Z" fill="#ffffff" fill-opacity="1" stroke="none"/>
 <path id="path-26" d="M72.514 59.406 C72.514 59.591 72.364 59.741 72.178 59.741 71.992 59.741 71.842 59.591 71.842 59.406 71.842 59.221 71.992 59.071 72.178 59.071 72.364 59.071 72.514 59.221 72.514 59.406 Z" fill="#ffffff" fill-opacity="1" stroke="none"/>
 <path id="path-27" d="M75.565 61.355 C75.565 61.54 75.415 61.69 75.229 61.69 75.044 61.69 74.893 61.54 74.893 61.355 74.893 61.17 75.044 61.019 75.229 61.019 75.415 61.019 75.565 61.17 75.565 61.355 Z" fill="#ffffff" fill-opacity="1" stroke="none"/>
 <path id="path-28" d="M76.067 56.04 C76.067 56.226 75.917 56.376 75.731 56.376 75.545 56.376 75.395 56.226 75.395 56.04 75.395 55.855 75.545 55.705 75.731 55.705 75.917 55.705 76.067 55.855 76.067 56.04 Z" fill="#ffffff" fill-opacity="1" stroke="none"/>
 <path id="path-29" d="M31.551 48.516 C31.551 48.702 31.401 48.852 31.215 48.852 31.03 48.852 30.879 48.702 30.879 48.516 30.879 48.331 31.03 48.181 31.215 48.181 31.401 48.181 31.551 48.331 31.551 48.516 Z" fill="#ffffff" fill-opacity="1" stroke="none"/>
 <path id="path-30" d="M31.792 56.219 C31.792 56.467 31.591 56.667 31.343 56.667 31.095 56.667 30.894 56.467 30.894 56.219 30.894 55.972 31.095 55.772 31.343 55.772 31.591 55.772 31.792 55.972 31.792 56.219 Z" fill="#ffffff" fill-opacity="1" stroke="none"/>
 <path id="path-31" d="M34.484 61.892 C34.484 62.139 34.283 62.34 34.035 62.34 33.787 62.34 33.587 62.139 33.587 61.892 33.587 61.645 33.787 61.444 34.035 61.444 34.283 61.444 34.484 61.645 34.484 61.892 Z" fill="#ffffff" fill-opacity="1" stroke="none"/>
 <path id="path-32" d="M66.733 55.981 C66.733 56.228 66.532 56.428 66.285 56.428 66.037 56.428 65.836 56.228 65.836 55.981 65.836 55.733 66.037 55.533 66.285 55.533 66.532 55.533 66.733 55.733 66.733 55.981 Z" fill="#ffffff" fill-opacity="1" stroke="none"/>
 <path id="path-33" d="M78.341 55.324 C78.341 55.571 78.14 55.772 77.892 55.772 77.644 55.772 77.443 55.571 77.443 55.324 77.443 55.076 77.644 54.876 77.892 54.876 78.14 54.876 78.341 55.076 78.341 55.324 Z" fill="#ffffff" fill-opacity="1" stroke="none"/>
 <path id="path-34" d="M72.597 52.876 C72.597 53.123 72.396 53.323 72.148 53.323 71.9 53.323 71.699 53.123 71.699 52.876 71.699 52.628 71.9 52.428 72.148 52.428 72.396 52.428 72.597 52.628 72.597 52.876 Z" fill="#ffffff" fill-opacity="1" stroke="none"/>
 <path id="path-35" d="M66.733 53.114 C66.733 53.362 66.532 53.562 66.285 53.562 66.037 53.562 65.836 53.362 65.836 53.114 65.836 52.867 66.037 52.667 66.285 52.667 66.532 52.667 66.733 52.867 66.733 53.114 Z" fill="#ffffff" fill-opacity="1" stroke="none"/>
 <path id="path-36" d="M54.19 7.422 L55.305 7.316 54.192 7.253 C54.157 7.038 53.984 6.87 53.767 6.842 L53.66 5.733 53.596 6.851 C53.395 6.896 53.24 7.064 53.215 7.273 L52.075 7.376 53.223 7.438 C53.265 7.63 53.421 7.781 53.616 7.816 L53.72 8.959 53.781 7.818 C53.987 7.783 54.151 7.625 54.19 7.422 Z" fill="#ffffff" fill-opacity="1" stroke="none"/>
 <path id="path-37" d="M35.357 19.821 L36.472 19.714 35.359 19.651 C35.325 19.437 35.151 19.268 34.934 19.24 L34.827 18.132 34.764 19.249 C34.562 19.294 34.407 19.462 34.382 19.671 L33.241 19.775 34.39 19.837 C34.432 20.029 34.588 20.179 34.783 20.215 L34.887 21.357 34.949 20.217 C35.155 20.183 35.319 20.024 35.357 19.821 Z" fill="#ffffff" fill-opacity="1" stroke="none"/>
 <path id="path-38" d="M77.074 52.601 L78.19 52.494 77.076 52.432 C77.042 52.217 76.869 52.048 76.651 52.021 L76.545 50.912 76.482 52.03 C76.28 52.074 76.126 52.243 76.101 52.452 L74.96 52.555 76.109 52.617 C76.151 52.809 76.306 52.959 76.502 52.995 L76.605 54.137 76.667 52.997 C76.872 52.963 77.035 52.805 77.074 52.601 Z" fill="#ffffff" fill-opacity="1" stroke="none"/>
 <path id="path-39" d="M31.587 69.74 L32.703 69.634 31.589 69.571 C31.554 69.356 31.382 69.188 31.164 69.16 L31.058 68.052 30.995 69.169 C30.792 69.214 30.638 69.382 30.613 69.591 L29.472 69.695 30.621 69.756 C30.663 69.948 30.818 70.1 31.014 70.134 L31.118 71.277 31.179 70.136 C31.385 70.103 31.549 69.943 31.587 69.74 Z" fill="#ffffff" fill-opacity="1" stroke="none"/>
 <path id="path-40" d="M73.529 61.381 L74.645 61.274 73.531 61.211 C73.497 60.996 73.324 60.828 73.106 60.8 L73 59.692 72.937 60.808 C72.735 60.853 72.581 61.021 72.556 61.23 L71.415 61.334 72.564 61.396 C72.606 61.588 72.761 61.738 72.957 61.774 L73.06 62.916 73.122 61.776 C73.327 61.743 73.491 61.584 73.529 61.381 Z" fill="#ffffff" fill-opacity="1" stroke="none"/>
 <path id="path-41" d="M55.045 30.409 C50.391 32.214 45.852 33.825 42.022 35.021 34.239 37.454 12.944 44.038 0.08 52.338 L1.157 52.756 C8.995 48.337 14.089 46.949 18.987 45.411 24.312 43.74 41.526 39.719 49.321 37.529 51.955 36.79 55.039 35.822 58.306 34.643 57.546 33.585 56.744 32.525 55.901 31.466 55.619 31.108 55.332 30.756 55.045 30.409 Z M60.731 38.23 C59.604 38.989 58.66 39.595 57.999 39.978 54.17 42.187 35.501 54.906 31.254 57.832 27.007 60.758 15.219 71.864 11.749 75.089 L11.629 76.401 C22.818 66.37 26.328 63.896 30.776 60.519 36.28 56.339 47.667 48.606 51.537 46.128 55.237 43.759 58.573 41.581 61.568 39.587 61.519 39.506 61.47 39.424 61.421 39.342 61.196 38.973 60.965 38.602 60.731 38.23 Z M78.221 19.795 C72.77 22.983 64.179 26.832 55.845 30.097 56.044 30.341 56.243 30.587 56.44 30.835 57.371 32.005 58.25 33.183 59.077 34.363 65.628 31.954 72.817 28.722 78.521 24.81 75.804 27.379 66.82 34.08 61.342 37.815 61.625 38.274 61.898 38.733 62.162 39.189 70.461 33.647 76.045 29.568 79.299 26.84 83.786 23.078 94.017 14.658 97.906 3.373 91.085 12.032 83.019 16.987 78.221 19.795 Z" fill="#fc3d21" fill-opacity="1" stroke="none"/>
 <path id="path-42" d="M40.402 49.869 C39.52 48.76 38.299 47.275 37.383 46.124 36.157 44.584 35.024 43.029 33.984 41.475 33.645 41.56 33.307 41.645 32.969 41.729 34.224 43.683 35.617 45.633 37.135 47.54 38.243 48.933 39.252 50.055 39.768 50.753 39.873 50.894 40.08 51.207 40.36 51.623 40.683 51.404 41.01 51.183 41.339 50.96 41.021 50.615 40.707 50.251 40.402 49.869 Z M46.844 55.705 C46.119 55.02 44.361 53.877 42.531 52.161 42.127 52.438 41.72 52.718 41.311 53.001 42.492 54.663 44.102 56.704 45.362 57.299 47.261 58.197 47.773 56.583 46.844 55.705 Z M56.44 30.835 C45.978 17.692 33.197 10.472 27.686 14.842 23.406 18.235 25.163 28.153 31.063 38.572 31.368 38.468 31.67 38.365 31.969 38.264 26.015 28.113 24.385 18.679 28.422 15.478 33.495 11.455 45.743 18.703 55.903 31.465 58.006 34.106 59.855 36.757 61.42 39.342 67.415 49.244 69.255 58.199 65.113 61.854 63.845 62.973 59.972 63.412 54.898 61.133 54.828 61.221 54.941 61.461 55.03 61.52 59.41 63.277 63.605 63.947 65.723 62.268 70.813 58.232 66.903 43.977 56.44 30.835 Z" fill="#ffffff" fill-opacity="1" stroke="none"/>
 <path id="path-43" d="M11.569 32.394 L18.27 32.394 23.894 41.918 C23.894 41.918 23.894 35.021 23.894 34.484 23.894 33.648 22.832 32.558 22.458 32.394 22.907 32.394 26.826 32.394 27.095 32.394 26.811 32.469 25.898 33.573 25.898 34.484 25.898 34.932 25.898 44.934 25.898 45.411 25.898 46.083 26.87 47.009 27.334 47.367 L20.872 47.367 15.158 37.798 C15.158 37.798 15.158 44.934 15.158 45.322 15.158 46.068 15.891 46.785 16.654 47.397 L11.718 47.397 C12.421 47.098 13.094 46.158 13.154 45.411 13.214 44.665 13.154 35.036 13.154 34.618 13.154 33.708 12.271 32.961 11.569 32.394 Z" fill="#ffffff" fill-opacity="1" stroke="none"/>
 <path id="path-44" d="M72.866 47.367 L81.781 47.367 C81.287 47.248 80.734 46.665 80.435 45.889 80.135 45.113 75.409 32.394 75.409 32.394 L72.019 32.394 C71.058 33.085 70.028 33.813 68.928 34.581 68.925 34.609 68.922 34.636 68.917 34.663 68.77 35.559 66.117 45.147 65.955 45.62 65.731 46.277 64.579 47.009 64.116 47.397 L68.917 47.397 C68.438 46.859 68.049 46.337 68.139 45.74 68.229 45.143 68.498 43.949 68.498 43.949 L73.464 43.949 C73.689 44.546 73.856 45.082 73.943 45.591 74.048 46.203 73.419 46.889 72.866 47.367 Z M68.947 42.038 L70.622 36.574 72.836 42.038 68.947 42.038 Z M68.192 32.94 C68.438 32.758 68.686 32.576 68.932 32.394 L67.631 32.394 C67.76 32.514 67.975 32.702 68.192 32.94 Z" fill="#ffffff" fill-opacity="1" stroke="none"/>
 <path id="path-45" d="M34.095 45.74 C34.185 45.143 34.454 43.949 34.454 43.949 L39.42 43.949 C39.644 44.546 39.812 45.082 39.899 45.591 40.003 46.203 39.375 46.889 38.822 47.367 L46.671 47.367 C46.834 47.258 46.997 47.148 47.159 47.04 46.855 46.771 46.575 46.368 46.391 45.889 46.091 45.113 41.365 32.394 41.365 32.394 L33.587 32.394 C33.96 32.737 35.037 33.663 34.873 34.663 34.726 35.559 32.073 45.147 31.911 45.62 31.687 46.277 30.535 47.009 30.071 47.397 L34.873 47.397 C34.394 46.859 34.005 46.337 34.095 45.74 Z M36.578 36.574 L38.792 42.038 34.903 42.038 36.578 36.574 Z" fill="#ffffff" fill-opacity="1" stroke="none"/>
 <path id="path-46" d="M61.208 39.826 C59.744 40.8 58.199 41.816 56.572 42.877 57.302 43.23 57.883 43.674 57.939 44.247 58.043 45.324 55.875 45.844 53.915 45.62 53.523 45.576 53.138 45.473 52.771 45.336 52.365 45.598 51.954 45.861 51.537 46.128 51.113 46.4 50.599 46.734 50.011 47.12 L50.011 48.666 C50.4 47.905 51.251 47.223 51.911 47.188 52.195 47.173 53.182 48.083 57.251 47.86 59.225 47.751 63.04 45.65 62.98 43.232 62.944 41.803 62.196 40.688 61.208 39.826 Z M50.01 43.56 L50.01 45.135 C50.37 44.895 50.725 44.659 51.073 44.429 50.526 44.049 50.138 43.694 50.01 43.56 Z M59.817 38.838 C59.438 38.614 59.054 38.418 58.686 38.245 56.771 37.349 54.767 37.185 54.348 35.976 54.053 35.123 54.887 34.334 56.921 34.364 58.955 34.393 60.84 35.603 61.348 36.036 L61.348 32.184 C61.199 32.333 60.543 33.085 59.942 32.96 58.791 32.722 56.831 32.41 54.587 32.423 52.015 32.438 49.801 34.422 49.726 36.931 49.621 40.439 52.433 41.395 54.019 41.947 54.182 42.004 54.369 42.065 54.571 42.129 56.092 41.142 57.295 40.382 57.999 39.977 58.471 39.705 59.091 39.315 59.817 38.838 Z" fill="#ffffff" fill-opacity="1" stroke="none"/>
</svg>
